eslint-config-hughx-ts.svg

<?xml version="1.0" encoding="UTF-8"?>
<svg version="1.1" viewBox="0 0 955.69 1016.8" xmlns="http://www.w3.org/2000/svg" xmlns:cc="http://creativecommons.org/ns#" xmlns:dc="http://purl.org/dc/elements/1.1/" xmlns:rdf="http://www.w3.org/1999/02/22-rdf-syntax-ns#">
<defs>
<clipPath id="a">
<rect x="38.822" y="43.175" width="784.38" height="882.42" fill="none"/>
</clipPath>
</defs>
<title>eslint-config-hughx</title>
<rect x="4" y="4" width="819.2" height="921.6" fill="#ccdbff" stroke="#014086" stroke-linecap="round" stroke-linejoin="round" stroke-width="8"/>
<g opacity=".5">
<path d="m340.33 429.55 87.156-50.319a7.05 7.05 0 0 1 7.0507 0l87.158 50.319a7.0547 7.0547 0 0 1 3.5253 6.1059v100.64a7.062 7.062 0 0 1-3.5253 6.1077l-87.158 50.319a7.05 7.05 0 0 1-7.0507 0l-87.156-50.319a7.054 7.054 0 0 1-3.5253-6.1077v-100.64a7.0585 7.0585 0 0 1 3.5253-6.1059" fill="#84beff"/>
<path d="m657.62 475.38-104.13-181.16c-3.7827-6.55-10.77-11.382-18.334-11.382h-208.27c-7.5653 0-14.555 4.8318-18.337 11.382l-104.13 180.76a21.546 21.546 0 0 0 0 21.373l104.13 179.68c3.7826 6.55 10.772 9.8993 18.337 9.8993h208.27c7.5635 0 14.553-3.2482 18.334-9.8l104.13-179.97a20.431 20.431 0 0 0 0.0018-20.78m-86.229 87.116a7.6373 7.6373 0 0 1-3.9122 6.46l-132.65 76.53a7.547 7.547 0 0 1-7.5041 0l-132.75-76.53a7.6477 7.6477 0 0 1-3.9213-6.46v-153.06a7.6226 7.6226 0 0 1 3.9-6.46l132.64-76.53a7.5319 7.5319 0 0 1 7.5 0l132.76 76.53a7.6565 7.6565 0 0 1 3.9338 6.46z" fill="#589fed"/>
</g>
<g clip-path="url(#a)">
<text transform="translate(38.822 72.842)" font-family="CourierPrimeCode-Regular, Courier Prime Code" font-size="45.96" opacity=".67">module.exports = {<tspan x="0" y="55.1514" fill="#0e55a3" xml:space="preserve">  "extends": "airbnb-base",</tspan><tspan x="0" y="110.3027" fill="#0e55a3" xml:space="preserve">  "env": {</tspan><tspan x="0" y="165.4546" fill="#0e55a3" xml:space="preserve">    "es6": true,</tspan><tspan x="0" y="220.606" fill="#0e55a3" xml:space="preserve">    "jest": true,</tspan><tspan x="0" y="275.7578" fill="#0e55a3" xml:space="preserve">  },</tspan><tspan x="0" y="330.9092" fill="#0e55a3" xml:space="preserve">  "rules": {</tspan><tspan x="0" y="386.0605" fill="#0e55a3" xml:space="preserve">    "space-in-parens": ["error", "always"],</tspan><tspan x="0" y="441.2124" fill="#0e55a3" xml:space="preserve">    "no-console": "off",</tspan><tspan x="0" y="496.3638" fill="#0e55a3" xml:space="preserve">    "no-param-reassign": "off",</tspan><tspan x="0" y="551.5151" fill="#0e55a3" xml:space="preserve">    "quotes": "off",</tspan><tspan x="0" y="606.6665" fill="#0e55a3" xml:space="preserve">    "quote-props": ["error", "always"],</tspan><tspan x="0" y="661.8188" fill="#0e55a3" xml:space="preserve">    "class-methods-use-this": "off",</tspan><tspan x="0" y="716.9702" fill="#0e55a3" xml:space="preserve">    "no-underscore-dangle": "off",</tspan><tspan x="0" y="772.1216" fill="#0e55a3" xml:space="preserve">    "no-plusplus": "off",</tspan><tspan x="0" y="827.2729" fill="#0e55a3" xml:space="preserve">    "no-lonely-if": "off",</tspan></text>
</g>
<g opacity=".5">
<circle cx="708.85" cy="777.1" r="236.66"/>
</g>
<path d="m719.13 543.39c131.07 0 236.48 105.88 236.48 236.71 0 130.61-105.41 236.71-236.48 236.71-130.84 0-236.94-106.1-236.94-236.71 0-130.83 106.1-236.71 236.94-236.71zm147.71 266.29h-295.88c0 59.176 79.749 118.35 147.94 118.35 68.881 3e-4 147.94-59.176 147.94-118.35zm-29.588-88.764a29.588 29.588 0 1 0-29.588 29.588 29.5 29.5 0 0 0 29.588-29.588zm-177.53 0a29.588 29.588 0 1 0-29.588 29.588 29.5 29.5 0 0 0 29.588-29.588z" fill="#2c3d50"/>
<g fill="#fff">
<path d="m570.95 809.68h295.88c0 59.176-79.06 118.35-147.94 118.35-68.192 3e-4 -147.94-59.176-147.94-118.35z"/>
<circle cx="807.66" cy="720.92" r="29.588"/>
<circle cx="630.13" cy="720.92" r="29.588"/>
</g>
<metadata>
<rdf:RDF>
<cc:Work rdf:about="">
<dc:title>eslint-config-hughx</dc:title>
</cc:Work>
</rdf:RDF>
</metadata>
</svg>

<svg xmlns="http://www.w3.org/2000/svg" xmlns:xlink="http://www.w3.org/1999/xlink" viewBox="0 0 955.6871 1016.7976"><defs><clipPath id="a"><rect x="38.8222" y="43.175" width="784.3778" height="882.425" fill="none"/></clipPath></defs><title>eslint-config-hughx</title><rect x="4" y="4" width="819.2" height="921.6" fill="#ccdbff" stroke="#31343f" stroke-linecap="round" stroke-linejoin="round" stroke-width="8"/><g opacity="0.5"><path d="M340.3293,429.5461l87.1559-50.3191a7.05,7.05,0,0,1,7.0507,0l87.1577,50.3191a7.0547,7.0547,0,0,1,3.5253,6.1059V536.29a7.062,7.062,0,0,1-3.5253,6.1077L434.5359,592.717a7.05,7.05,0,0,1-7.0507,0l-87.1559-50.3191a7.054,7.054,0,0,1-3.5253-6.1077V435.652a7.0585,7.0585,0,0,1,3.5253-6.1059" fill="#8080f2"/><path d="M657.6174,475.3843,553.4827,294.22c-3.7827-6.55-10.77-11.3821-18.3338-11.3821H326.8758c-7.5653,0-14.5547,4.8318-18.3374,11.3821L204.4037,474.9848a21.546,21.546,0,0,0,0,21.3733l104.1347,179.68c3.7826,6.55,10.7721,9.8993,18.3374,9.8993H535.1471c7.5635,0,14.553-3.2482,18.3338-9.8L657.6156,496.1638a20.4306,20.4306,0,0,0,.0018-20.7795m-86.2291,87.1164a7.6373,7.6373,0,0,1-3.9122,6.46L434.831,645.4906a7.547,7.547,0,0,1-7.5041,0l-132.7476-76.53a7.6477,7.6477,0,0,1-3.9213-6.46V409.44a7.6226,7.6226,0,0,1,3.9-6.46l132.64-76.53a7.5319,7.5319,0,0,1,7.5,0l132.7567,76.53a7.6565,7.6565,0,0,1,3.9338,6.46Z" fill="#4b32c3"/></g><g clip-path="url(#a)"><text transform="translate(38.8222 72.8425)" opacity="0.67" font-size="45.9596" font-family="CourierPrimeCode-Regular, Courier Prime Code">module.exports = {<tspan x="0" y="55.1514" xml:space="preserve">  &quot;extends&quot;: &quot;airbnb-base&quot;,</tspan><tspan x="0" y="110.3027" xml:space="preserve">  &quot;env&quot;: {</tspan><tspan x="0" y="165.4546" xml:space="preserve">    &quot;es6&quot;: true,</tspan><tspan x="0" y="220.606" xml:space="preserve">    &quot;jest&quot;: true,</tspan><tspan x="0" y="275.7578" xml:space="preserve">  },</tspan><tspan x="0" y="330.9092" xml:space="preserve">  &quot;rules&quot;: {</tspan><tspan x="0" y="386.0605" xml:space="preserve">    &quot;space-in-parens&quot;: [&quot;error&quot;, &quot;always&quot;],</tspan><tspan x="0" y="441.2124" xml:space="preserve">    &quot;no-console&quot;: &quot;off&quot;,</tspan><tspan x="0" y="496.3638" xml:space="preserve">    &quot;no-param-reassign&quot;: &quot;off&quot;,</tspan><tspan x="0" y="551.5151" xml:space="preserve">    &quot;quotes&quot;: &quot;off&quot;,</tspan><tspan x="0" y="606.6665" xml:space="preserve">    &quot;quote-props&quot;: [&quot;error&quot;, &quot;always&quot;],</tspan><tspan x="0" y="661.8188" xml:space="preserve">    &quot;class-methods-use-this&quot;: &quot;off&quot;,</tspan><tspan x="0" y="716.9702" xml:space="preserve">    &quot;no-underscore-dangle&quot;: &quot;off&quot;,</tspan><tspan x="0" y="772.1216" xml:space="preserve">    &quot;no-plusplus&quot;: &quot;off&quot;,</tspan><tspan x="0" y="827.2729" xml:space="preserve">    &quot;no-lonely-if&quot;: &quot;off&quot;,</tspan></text></g><g opacity="0.5"><circle cx="708.8523" cy="777.1018" r="236.6624"/></g><path d="M719.1254,543.3867c131.0672,0,236.4755,105.875,236.4755,236.7055,0,130.6073-105.4083,236.7054-236.4755,236.7054C588.2881,1016.7976,482.19,910.7,482.19,780.0922,482.19,649.2617,588.2881,543.3867,719.1254,543.3867ZM866.8363,809.68H570.9545c0,59.1764,79.7494,118.3528,147.9409,118.3528C787.7767,928.0331,866.8363,868.8567,866.8363,809.68Zm-29.5881-88.7645A29.5882,29.5882,0,1,0,807.66,750.504,29.5,29.5,0,0,0,837.2482,720.9158Zm-177.5292,0a29.5882,29.5882,0,1,0-29.5882,29.5882A29.5,29.5,0,0,0,659.719,720.9158Z" fill="#2c3d50"/><path d="M570.9545,809.68H866.8363c0,59.1764-79.06,118.3528-147.9409,118.3528C650.7039,928.0331,570.9545,868.8567,570.9545,809.68Z" fill="#fff"/><circle cx="807.66" cy="720.9158" r="29.5882" fill="#fff"/><circle cx="630.1308" cy="720.9158" r="29.5882" fill="#fff"/></svg>
